;FLAVOR:UltiGCode
;TIME:1597
;MATERIAL:4975
;MATERIAL2:0
;NOZZLE_DIAMETER:0.4
;MINX:96.2
;MINY:84.235
;MINZ:0.3
;MAXX:126.8
;MAXY:132.835
;MAXZ:9.55
;Generated with Cura_SteamEngine 4.8.0
M82 ;absolute extrusion mode
G0 F3000 Y50 ;avoid prime blob
G92 E0
G92 E0
G10
;LAYER_COUNT:38
;LAYER:0
M107
G0 F3600 X96.548 Y84.971 Z0.3
;TYPE:SKIRT
G11
G1 F1800 X96.803 Y84.69 E0.04553
G1 X97.112 Y84.47 E0.09105
G1 X97.459 Y84.318 E0.13651
G1 X98 Y84.235 E0.20219
G1 X125 Y84.235 E3.44219
G1 X125.377 Y84.275 E3.48769
G1 X125.737 Y84.393 E3.53315
G1 X126.064 Y84.583 E3.57853
G1 X126.345 Y84.838 E3.62406
G1 X126.565 Y85.147 E3.66958
G1 X126.717 Y85.494 E3.71504
G1 X126.8 Y86.035 E3.78072
G1 X126.8 Y131.035 E9.18072
G1 X126.76 Y131.412 E9.22622
G1 X126.642 Y131.772 E9.27168
G1 X126.452 Y132.099 E9.31706
G1 X126.197 Y132.38 E9.3626
G1 X125.888 Y132.6 E9.40811
G1 X125.541 Y132.752 E9.45357
G1 X125 Y132.835 E9.51925
G1 X98 Y132.835 E12.75925
G1 X97.623 Y132.795 E12.80475
G1 X97.263 Y132.677 E12.85021
G1 X96.936 Y132.487 E12.89559
G1 X96.655 Y132.232 E12.94113
G1 X96.435 Y131.923 E12.98664
G1 X96.283 Y131.576 E13.0321
G1 X96.2 Y131.035 E13.09778
G1 X96.2 Y86.035 E18.49778
G1 X96.24 Y85.658 E18.54328
G1 X96.358 Y85.298 E18.58874
G1 X96.548 Y84.971 E18.63412
G0 F3600 X96.945 Y85.114
G1 F1800 X97.193 Y84.891 E18.67414
G1 X97.487 Y84.732 E18.71425
G1 X98 Y84.635 E18.7769
G1 X125 Y84.635 E22.0169
G1 X125.332 Y84.675 E22.05703
G1 X125.644 Y84.792 E22.09702
G1 X125.921 Y84.98 E22.13719
G1 X126.144 Y85.228 E22.17721
G1 X126.303 Y85.522 E22.21732
G1 X126.4 Y86.035 E22.27997
G1 X126.4 Y131.035 E27.67997
G1 X126.36 Y131.367 E27.7201
G1 X126.243 Y131.679 E27.76009
G1 X126.055 Y131.956 E27.80026
G1 X125.807 Y132.179 E27.84028
G1 X125.513 Y132.338 E27.88039
G1 X125 Y132.435 E27.94304
G1 X98 Y132.435 E31.18304
G1 X97.668 Y132.395 E31.22317
G1 X97.356 Y132.278 E31.26315
G1 X97.079 Y132.09 E31.30333
G1 X96.856 Y131.842 E31.34335
G1 X96.697 Y131.548 E31.38346
G1 X96.6 Y131.035 E31.44611
G1 X96.6 Y86.035 E36.84611
G1 X96.64 Y85.703 E36.88624
G1 X96.757 Y85.391 E36.92622
G1 X96.945 Y85.114 E36.9664
G0 F3600 X97.156 Y85.499
G1 F1800 X97.339 Y85.284 E37.00028
G1 X97.575 Y85.13 E37.03409
G1 X98 Y85.035 E37.08635
G1 X125 Y85.035 E40.32635
G1 X125.279 Y85.075 E40.36017
G1 X125.536 Y85.191 E40.39401
G1 X125.751 Y85.374 E40.42789
G1 X125.905 Y85.61 E40.46171
G1 X126 Y86.035 E40.51396
G1 X126 Y131.035 E45.91396
G1 X125.96 Y131.314 E45.94779
G1 X125.844 Y131.571 E45.98162
G1 X125.661 Y131.786 E46.0155
G1 X125.425 Y131.94 E46.04932
G1 X125 Y132.035 E46.10158
G1 X98 Y132.035 E49.34158
G1 X97.721 Y131.995 E49.3754
G1 X97.464 Y131.879 E49.40924
G1 X97.249 Y131.696 E49.44312
G1 X97.095 Y131.46 E49.47693
G1 X97 Y131.035 E49.52919
G1 X97 Y86.035 E54.92919
G1 X97.04 Y85.756 E54.96301
G1 X97.156 Y85.499 E54.99685
G0 F3600 X97.553 Y85.634
G1 F1800 X97.726 Y85.501 E55.02303
G1 X98 Y85.435 E55.05686
G1 X125 Y85.435 E58.29686
G1 X125.215 Y85.475 E58.3231
G1 X125.401 Y85.588 E58.34921
G1 X125.534 Y85.761 E58.3754
G1 X125.6 Y86.035 E58.40922
G1 X125.6 Y131.035 E63.80922
G1 X125.56 Y131.25 E63.83546
G1 X125.447 Y131.436 E63.86158
G1 X125.274 Y131.569 E63.88777
G1 X125 Y131.635 E63.92159
G1 X98 Y131.635 E67.16159
G1 X97.785 Y131.595 E67.18783
G1 X97.599 Y131.482 E67.21394
G1 X97.466 Y131.309 E67.24013
G1 X97.4 Y131.035 E67.27395
G1 X97.4 Y86.035 E72.67395
G1 X97.44 Y85.82 E72.70019
G1 X97.553 Y85.634 E72.72631
G0 F3600 X97.839 Y85.916
G1 F1800 X98 Y85.835 E72.74794
G1 X125 Y85.835 E75.98794
G1 X125.119 Y85.874 E76.00296
G1 X125.2 Y86.035 E76.02459
G1 X125.2 Y131.035 E81.42459
G1 X125.161 Y131.154 E81.43962
G1 X125 Y131.235 E81.46125
G1 X98 Y131.235 E84.70125
G1 X97.881 Y131.196 E84.71627
G1 X97.8 Y131.035 E84.7379
G1 X97.8 Y86.035 E90.1379
G1 X97.839 Y85.916 E90.15293
G10
;MESH:M4 slide platform v1.stl
G0 F3600 X101.891 Y95.057
G0 X101.835 Y95.351
;TYPE:WALL-OUTER
G11
G1 F1800 X101.299 Y95.341 E90.21726
G1 X100.769 Y95.419 E90.28154
G1 X100.259 Y95.584 E90.34587
G1 X99.785 Y95.833 E90.41012
G1 X99.359 Y96.156 E90.47427
G1 X98.992 Y96.546 E90.53853
G1 X98.695 Y96.993 E90.60294
G1 X98.594 Y97.219 E90.63264
G1 X98.477 Y97.482 E90.66718
G1 X98.345 Y97.997 E90.73098
G1 X98.311 Y98.272 E90.76423
G1 X98.311 Y98.803 E90.82795
G1 X98.4 Y99.331 E90.89221
G1 X98.576 Y99.837 E90.95649
G1 X98.598 Y99.877 E90.96197
G1 X98.834 Y100.306 E91.02073
G1 X99.167 Y100.725 E91.08495
G1 X99.565 Y101.084 E91.14927
G1 X100.017 Y101.371 E91.21352
G1 X100.511 Y101.579 E91.27784
G1 X101.033 Y101.702 E91.3422
G1 X101.567 Y101.735 E91.4064
G1 X102.099 Y101.679 E91.47059
G1 X102.616 Y101.535 E91.53499
G1 X103.101 Y101.307 E91.5993
G1 X103.54 Y101.001 E91.66352
G1 X103.923 Y100.626 E91.72784
G1 X104.238 Y100.193 E91.7921
G1 X104.476 Y99.713 E91.85639
G1 X104.63 Y99.201 E91.92055
G1 X104.698 Y98.668 E91.98502
G1 X104.675 Y98.134 E92.04916
G1 X104.564 Y97.61 E92.11344
G1 X104.367 Y97.112 E92.17771
G1 X104.089 Y96.653 E92.2421
G1 X103.739 Y96.248 E92.30633
G1 X103.327 Y95.906 E92.37059
G1 X102.862 Y95.638 E92.43499
G1 X102.361 Y95.452 E92.49912
G1 X101.835 Y95.351 E92.56339
G0 F3600 X101.635 Y95.348
G0 X101.64 Y95.048
G0 X102.424 Y95.22
G0 X103.467 Y95.711
G0 X104.286 Y96.516
G0 X104.794 Y97.542
G0 X104.938 Y98.679
G0 X101.891 Y115.057
G0 X101.835 Y115.351
G1 F1800 X101.299 Y115.341 E92.62773
G1 X100.769 Y115.419 E92.69201
G1 X100.259 Y115.584 E92.75633
G1 X99.785 Y115.833 E92.82059
G1 X99.359 Y116.156 E92.88474
G1 X98.992 Y116.546 E92.949
G1 X98.695 Y116.993 E93.0134
G1 X98.594 Y117.219 E93.04311
G1 X98.477 Y117.482 E93.07765
G1 X98.345 Y117.997 E93.14145
G1 X98.311 Y118.272 E93.1747
G1 X98.311 Y118.803 E93.23842
G1 X98.4 Y119.331 E93.30267
G1 X98.576 Y119.837 E93.36696
G1 X98.598 Y119.877 E93.37244
G1 X98.834 Y120.306 E93.43119
G1 X99.167 Y120.725 E93.49542
G1 X99.565 Y121.084 E93.55974
G1 X100.017 Y121.371 E93.62399
G1 X100.511 Y121.579 E93.68831
G1 X101.033 Y121.702 E93.75266
G1 X101.567 Y121.735 E93.81687
G1 X102.099 Y121.679 E93.88106
G1 X102.616 Y121.535 E93.94546
G1 X103.101 Y121.307 E94.00977
G1 X103.54 Y121.001 E94.07399
G1 X103.923 Y120.626 E94.13831
G1 X104.238 Y120.193 E94.20256
G1 X104.476 Y119.713 E94.26685
G1 X104.63 Y119.201 E94.33101
G1 X104.698 Y118.668 E94.39549
G1 X104.675 Y118.134 E94.45963
G1 X104.564 Y117.61 E94.52391
G1 X104.367 Y117.112 E94.58817
G1 X104.089 Y116.653 E94.65257
G1 X103.739 Y116.248 E94.7168
G1 X103.327 Y115.906 E94.78105
G1 X102.862 Y115.638 E94.84546
G1 X102.361 Y115.452 E94.90959
G1 X101.835 Y115.351 E94.97386
G0 F3600 X101.635 Y115.348
G0 X101.64 Y115.048
G0 X121.891 Y115.057
G0 X121.835 Y115.351
G1 F1800 X121.299 Y115.341 E95.03819
G1 X120.769 Y115.419 E95.10248
G1 X120.259 Y115.584 E95.1668
G1 X119.785 Y115.833 E95.23105
G1 X119.359 Y116.156 E95.2952
G1 X118.992 Y116.546 E95.35947
G1 X118.695 Y116.993 E95.42387
G1 X118.477 Y117.482 E95.48812
G1 X118.345 Y117.997 E95.55191
G1 X118.311 Y118.272 E95.58516
G1 X118.311 Y118.803 E95.64888
G1 X118.4 Y119.331 E95.71314
G1 X118.576 Y119.837 E95.77743
G1 X118.834 Y120.306 E95.84166
G1 X119.167 Y120.725 E95.90589
G1 X119.565 Y121.084 E95.9702
G1 X120.017 Y121.371 E96.03445
G1 X120.511 Y121.579 E96.09877
G1 X121.033 Y121.702 E96.16313
G1 X121.567 Y121.735 E96.22733
G1 X122.099 Y121.679 E96.29153
G1 X122.616 Y121.535 E96.35593
G1 X123.101 Y121.307 E96.42024
G1 X123.54 Y121.001 E96.48445
G1 X123.923 Y120.626 E96.54877
G1 X124.238 Y120.193 E96.61303
G1 X124.404 Y119.858 E96.65789
G1 X124.476 Y119.713 E96.67732
G1 X124.63 Y119.201 E96.74148
G1 X124.698 Y118.668 E96.80596
G1 X124.675 Y118.134 E96.8701
G1 X124.564 Y117.61 E96.93437
G1 X124.406 Y117.21 E96.98598
G1 X124.367 Y117.112 E96.99864
G1 X124.089 Y116.653 E97.06303
G1 X123.739 Y116.248 E97.12727
G1 X123.327 Y115.906 E97.19152
G1 X122.862 Y115.638 E97.25593
G1 X122.361 Y115.452 E97.32006
G1 X121.835 Y115.351 E97.38433
G0 F3600 X121.635 Y115.348
G0 X121.64 Y115.048
G0 X124.67 Y99.2
G0 X124.7 Y97.18
G0 X124.8 Y97.18
G1 F1800 X124.8 Y97.61 E97.43593
G1 X124.8 Y98.134 E97.49881
G1 X124.8 Y98.668 E97.56289
G1 X124.8 Y99.201 E97.62685
G1 X124.8 Y99.713 E97.68829
G1 X124.8 Y99.875 E97.70773
G1 X124.8 Y117.18 E99.78433
G1 X124.8 Y117.61 E99.82555
G1 X124.8 Y118.134 E99.85376
G1 X124.8 Y118.668 E99.87194
G1 X124.8 Y119.201 E99.89361
G1 X124.8 Y119.713 E99.93129
G1 X124.8 Y119.875 E99.94894
G1 X124.8 Y130.835 E101.26414
G1 X98.2 Y130.835 E104.45614
G1 X98.2 Y119.883 E105.77038
G1 X98.2 Y119.837 E105.77574
G1 X98.2 Y119.331 E105.81921
G1 X98.2 Y118.803 E105.84373
G1 X98.2 Y118.272 E105.86141
G1 X98.2 Y117.997 E105.87193
G1 X98.2 Y117.482 E105.9043
G1 X98.2 Y117.194 E105.93367
G1 X98.2 Y99.883 E108.01099
G1 X98.2 Y99.837 E108.01635
G1 X98.2 Y99.331 E108.05982
G1 X98.2 Y98.803 E108.08434
G1 X98.2 Y98.272 E108.10202
G1 X98.2 Y97.997 E108.11254
G1 X98.2 Y97.482 E108.14491
G1 X98.2 Y97.194 E108.17428
G1 X98.2 Y86.235 E109.48936
G1 X124.8 Y86.235 E112.68136
G1 X124.8 Y97.18 E113.99476
G0 F3600 X124.8 Y97.38
G0 X124.7 Y97.38
G0 X124.308 Y96.559
G0 X123.467 Y95.711
G0 X121.891 Y95.057
G0 X121.835 Y95.351
G1 F1800 X121.299 Y95.341 E114.05909
G1 X120.769 Y95.419 E114.12337
G1 X120.259 Y95.584 E114.1877
G1 X119.785 Y95.833 E114.25195
G1 X119.359 Y96.156 E114.3161
G1 X118.992 Y96.546 E114.38036
G1 X118.695 Y96.993 E114.44477
G1 X118.477 Y97.482 E114.50901
G1 X118.345 Y97.997 E114.57281
G1 X118.311 Y98.272 E114.60606
G1 X118.311 Y98.803 E114.66978
G1 X118.4 Y99.331 E114.73404
G1 X118.576 Y99.837 E114.79832
G1 X118.834 Y100.306 E114.86256
G1 X119.167 Y100.725 E114.92678
G1 X119.565 Y101.084 E114.9911
G1 X120.017 Y101.371 E115.05535
G1 X120.511 Y101.579 E115.11967
G1 X121.033 Y101.702 E115.18403
G1 X121.567 Y101.735 E115.24823
G1 X122.099 Y101.679 E115.31242
G1 X122.616 Y101.535 E115.37682
G1 X123.101 Y101.307 E115.44113
G1 X123.54 Y101.001 E115.50535
G1 X123.923 Y100.626 E115.56967
G1 X124.238 Y100.193 E115.63393
G1 X124.404 Y99.858 E115.67879
G1 X124.476 Y99.713 E115.69641
G1 X124.63 Y99.201 E115.73679
G1 X124.698 Y98.668 E115.75895
G1 X124.675 Y98.134 E115.77715
G1 X124.564 Y97.61 E115.80671
G1 X124.406 Y97.21 E115.84794
G1 X124.367 Y97.112 E115.8606
G1 X124.089 Y96.653 E115.92499
G1 X123.739 Y96.248 E115.98923
G1 X123.327 Y95.906 E116.05348
G1 X122.862 Y95.638 E116.11788
G1 X122.361 Y95.452 E116.18201
G1 X121.835 Y95.351 E116.24629
G0 F3600 X121.635 Y95.348
G0 X121.64 Y95.048
G0 X122.424 Y95.22
G0 X124.02 Y95.961
;TYPE:WALL-INNER
G1 F1800 X124.004 Y95.948 E116.24876
G1 X123.556 Y95.576 E116.31864
G1 X123.033 Y95.275 E116.39105
G1 X122.469 Y95.065 E116.46327
G1 X121.877 Y94.952 E116.53559
G1 X121.273 Y94.94 E116.60809
G1 X120.678 Y95.028 E116.68026
G1 X120.103 Y95.214 E116.75278
G1 X119.57 Y95.494 E116.82503
G1 X119.091 Y95.857 E116.89715
G1 X118.678 Y96.296 E116.96948
G1 X118.343 Y96.8 E117.0421
G1 X118.098 Y97.35 E117.11435
G1 X117.951 Y97.922 E117.18522
G1 X117.911 Y98.247 E117.22452
G1 X117.911 Y98.836 E117.2952
G1 X118.011 Y99.431 E117.3676
G1 X118.209 Y100 E117.4399
G1 X118.5 Y100.528 E117.51224
G1 X118.874 Y101 E117.58451
G1 X119.322 Y101.404 E117.6569
G1 X119.831 Y101.727 E117.72924
G1 X120.387 Y101.961 E117.80163
G1 X120.974 Y102.099 E117.87399
G1 X121.576 Y102.136 E117.94636
G1 X122.174 Y102.073 E118.01852
G1 X122.756 Y101.911 E118.09101
G1 X123.302 Y101.655 E118.16338
G1 X123.796 Y101.31 E118.23568
G1 X124.035 Y101.076 E118.27582
G1 X124.227 Y100.888 E118.30807
G1 X124.4 Y100.65 E118.34338
G1 X124.4 Y100.888 E118.34814
G1 X124.4 Y101.157 E118.37199
G1 X124.4 Y115.94 E120.14595
G1 X124.4 Y115.961 E120.14847
G1 X124.4 Y116.401 E120.20127
G1 X124.02 Y115.961 E120.24084
G1 X124.004 Y115.948 E120.24326
G1 X123.556 Y115.576 E120.31314
G1 X123.033 Y115.275 E120.38555
G1 X122.469 Y115.065 E120.45777
G1 X121.877 Y114.952 E120.53009
G1 X121.273 Y114.94 E120.60258
G1 X120.678 Y115.028 E120.67476
G1 X120.103 Y115.214 E120.74728
G1 X119.57 Y115.494 E120.81953
G1 X119.091 Y115.857 E120.89165
G1 X118.678 Y116.296 E120.96398
G1 X118.343 Y116.8 E121.0366
G1 X118.098 Y117.35 E121.10885
G1 X117.951 Y117.922 E121.17972
G1 X117.911 Y118.247 E121.21902
G1 X117.911 Y118.836 E121.2897
G1 X118.011 Y119.431 E121.3621
G1 X118.209 Y120 E121.43439
G1 X118.5 Y120.528 E121.50674
G1 X118.874 Y121 E121.57901
G1 X119.322 Y121.404 E121.6514
G1 X119.831 Y121.727 E121.72374
G1 X120.387 Y121.961 E121.79613
G1 X120.974 Y122.099 E121.86849
G1 X121.576 Y122.136 E121.94086
G1 X122.174 Y122.073 E122.01302
G1 X122.756 Y121.911 E122.08551
G1 X123.302 Y121.655 E122.15788
G1 X123.796 Y121.31 E122.23018
G1 X124.035 Y121.076 E122.27032
G1 X124.227 Y120.888 E122.30257
G1 X124.4 Y120.65 E122.33788
G1 X124.4 Y120.888 E122.34264
G1 X124.4 Y121.157 E122.36649
G1 X124.4 Y130.435 E123.47985
G1 X98.6 Y130.435 E126.57585
G1 X98.6 Y121.141 E127.69113
G1 X98.6 Y121 E127.70805
G1 X98.6 Y120.654 E127.74957
G1 X98.874 Y121 E127.77316
G1 X98.978 Y121.094 E127.78756
G1 X99.322 Y121.404 E127.84313
G1 X99.831 Y121.727 E127.91547
G1 X100.387 Y121.961 E127.98786
G1 X100.974 Y122.099 E128.06022
G1 X101.576 Y122.136 E128.1326
G1 X102.174 Y122.073 E128.20475
G1 X102.756 Y121.911 E128.27725
G1 X103.302 Y121.655 E128.34961
G1 X103.796 Y121.31 E128.42192
G1 X104.227 Y120.888 E128.4943
G1 X104.581 Y120.401 E128.56655
G1 X104.849 Y119.86 E128.639
G1 X105.023 Y119.284 E128.7112
G1 X105.099 Y118.685 E128.78366
G1 X105.073 Y118.084 E128.85585
G1 X104.948 Y117.494 E128.92822
G1 X104.727 Y116.934 E129.00046
G1 X104.414 Y116.417 E129.07299
G1 X104.02 Y115.961 E129.1453
G1 X103.556 Y115.576 E129.21765
G1 X103.033 Y115.275 E129.29007
G1 X102.469 Y115.065 E129.36228
G1 X101.877 Y114.952 E129.43461
G1 X101.273 Y114.94 E129.5071
G1 X100.678 Y115.028 E129.57928
G1 X100.103 Y115.214 E129.6518
G1 X99.57 Y115.494 E129.72405
G1 X99.091 Y115.857 E129.79617
G1 X98.956 Y116 E129.81977
G1 X98.678 Y116.296 E129.8685
G1 X98.6 Y116.413 E129.88537
G1 X98.6 Y116.296 E129.88609
G1 X98.6 Y115.89 E129.91658
G1 X98.6 Y101.141 E131.68646
G1 X98.6 Y101 E131.70338
G1 X98.6 Y100.654 E131.7449
G1 X98.874 Y101 E131.76848
G1 X98.978 Y101.094 E131.78288
G1 X99.322 Y101.404 E131.83845
G1 X99.831 Y101.727 E131.91079
G1 X100.387 Y101.961 E131.98318
G1 X100.974 Y102.099 E132.05554
G1 X101.576 Y102.136 E132.12792
G1 X102.174 Y102.073 E132.20007
G1 X102.756 Y101.911 E132.27257
G1 X103.302 Y101.655 E132.34493
G1 X103.796 Y101.31 E132.41724
G1 X104.227 Y100.888 E132.48962
G1 X104.581 Y100.401 E132.56187
G1 X104.849 Y99.86 E132.63432
G1 X105.023 Y99.284 E132.70653
G1 X105.099 Y98.685 E132.77898
G1 X105.073 Y98.084 E132.85117
G1 X104.948 Y97.494 E132.92354
G1 X104.727 Y96.934 E132.99578
G1 X104.414 Y96.417 E133.06831
G1 X104.02 Y95.961 E133.14062
G1 X103.556 Y95.576 E133.21298
G1 X103.033 Y95.275 E133.28539
G1 X102.469 Y95.065 E133.35761
G1 X101.877 Y94.952 E133.42993
G1 X101.273 Y94.94 E133.50242
G1 X100.678 Y95.028 E133.5746
G1 X100.103 Y95.214 E133.64712
G1 X99.57 Y95.494 E133.71937
G1 X99.091 Y95.857 E133.79149
G1 X98.956 Y96 E133.81509
G1 X98.678 Y96.296 E133.86382
G1 X98.6 Y96.413 E133.88069
G1 X98.6 Y96.296 E133.88141
G1 X98.6 Y95.89 E133.9119
G1 X98.6 Y86.635 E135.0225
G1 X124.4 Y86.635 E138.1185
G1 X124.4 Y95.94 E139.2351
G1 X124.4 Y95.961 E139.23756
G1 X124.4 Y96.401 E139.29036
G1 X124.02 Y95.961 E139.32993
G0 F3600 X124.01 Y95.446
;TYPE:SKIN
G1 F1800 X123.78 Y95.254 E139.36588
G1 X123.199 Y94.92 E139.4463
G1 X122.574 Y94.688 E139.5263
G1 X121.918 Y94.562 E139.60646
G1 X121.248 Y94.55 E139.68688
G1 X120.589 Y94.647 E139.76681
G1 X119.951 Y94.853 E139.84726
G1 X119.36 Y95.164 E139.9274
G1 X118.83 Y95.566 E140.00723
G1 X118.372 Y96.052 E140.08736
G1 X118 Y96.611 E140.16794
G1 X117.728 Y97.221 E140.24808
G1 X117.567 Y97.85 E140.326
G1 X117.521 Y98.223 E140.3711
G1 X117.521 Y98.869 E140.44862
G1 X117.632 Y99.528 E140.52881
G1 X117.852 Y100.16 E140.60911
G1 X118.174 Y100.745 E140.68925
G1 X118.589 Y101.267 E140.76927
G1 X119.086 Y101.716 E140.84964
G1 X119.65 Y102.074 E140.92981
G1 X120.266 Y102.333 E141.01
G1 X120.917 Y102.487 E141.09027
G1 X121.584 Y102.528 E141.17046
G1 X122.248 Y102.457 E141.2506
G1 X122.892 Y102.278 E141.33081
G1 X123.497 Y101.994 E141.41101
